X:1036
T:"Småpolska" Koralpolskan
R:Polska
Z:Göran Hed 2009
O:Gävle, Gästrikland
S:efter Gustaf Jernberg
S:Jenbergslåtar no 2
L: 1/8
K:F 
M: 3/4
A2d>e f>e| d>^c d2D2-| DE ((3E/2F/2E/2)F ((3F/2G/2F/2 E/2F/2)| (GA)A4|A2d>e f>e| d>^c d2D2-|
DE ((3E/2F/2E/2)F ((3F/2G/2F/2 E/2F/2)| (GA)A4|:A>=B c>d c>B| c>de2c2| A2_B2A2| G2F4|
F>G A>B A>^G| A>=B^c2cB| A2d2 d>f| ed ^c2-c2|f2e2d2| c>_B A2G2|
F>E D2d2| (^cd)d4:|
(:musicend:)

(:music:)
